X:57
T:Jackson's Reel
S: Treoir, 1993;  from Noel Strange
M:C
I:speed 300
K:D
Bd | (3ABA ^GB ADED | ADED EFGB | (3ABA ^GA AGAB | cBcG EFGB |
(3ABA ^GA ADED | ADED EFGB | (3ABA ^GA AGAB | cBcG EFGE |
(3FED AD BDAD | (3FED FG ABAG | (3FED AD BDAB | cBcG EFG2 |
(3FED ADBDAD | (3FED FG ABAG | (3FED AD BDAB | cBcG EFGA |
df (3fef dfef | dcdBADFA | (3Bcd e^d efe=d | cdBc A2 Bc | 
dffe dgfe | dcdB ADFA | (3Bcd e^d efe=d | cdBc A2 ||
